X: 2365
T: OLD IRONSIDES
R: Hornpipe.
%R: hornpipe, reel
B: James Kerr "Merry Melodies" v.2 p.40 #365
Z: 2016 John Chambers <jc:trillian.mit.edu>
M: C
L: 1/8
K: G
D2 |:\
G2B>c d>Bg2 | e>de>f g>dB>G |\
D2F>A c>Af>e |[1 d>^cd>e d>=cB>A :|[1 (3ded (3cBA G2 |:\
d2 |\
(3(d^cd) e>d =c>AF>A |
G>FG>A G>Bc>^c |\
[1 (3(d^cd) g>f (3(e^de) =c>B | A>DF>A d2 :|\
[2 (3(d^cd) g>e =c>AF>A | G2 (3(BAB) G2 |]
